svgs/sharp-regular/boxes-packing.svg

<svg xmlns="http://www.w3.org/2000/svg" viewBox="0 0 640 512"><!--! Font Awesome Pro 6.6.0 by @fontawesome - https://fontawesome.com License - https://fontawesome.com/license (Commercial License) Copyright 2024 Fonticons, Inc. --><path d="M592 48L304 48l0 80-48 0 0-80 0-48 48 0L592 0l48 0 0 48 0 416 0 48-48 0-208 0 0-48 208 0 0-416zM497 247l64 64L527 345l-23-23 0 70.1 0 24-48 0 0-24 0-70.1-23 23L399 311l64-64 17-17 17 17zM336 208L48 208l0 48 32 0 224 0 32 0 0-48zM0 304l0-48 0-48 0-48 48 0 288 0 48 0 0 48 0 48 0 48-32 0 0 160 0 48-48 0L80 512l-48 0 0-48 0-160L0 304zM80 464l224 0 0-160L80 304l0 160zM256 336l0 48-128 0 0-48 128 0z"/></svg>

<svg xmlns="http://www.w3.org/2000/svg" viewBox="0 0 640 512"><!--! Font Awesome Pro 6.4.0 by @fontawesome - https://fontawesome.com License - https://fontawesome.com/license (Commercial License) Copyright 2023 Fonticons, Inc. --><path d="M592 48H304v80H256V48 0h48H592h48V48 464v48H592 384V464H592V48zM497 247l64 64L527 345l-23-23V392v24H456V392 321.9l-23 23L399 311l64-64 17-17 17 17zM336 208H48v48H80 304h32V208zM0 304V256 208 160H48 336h48v48 48 48H352V464v48H304 80 32V464 304H0zM80 464H304V304H80V464zM256 336v48H128V336H256z"/></svg>
